X:703
T:Molly Bawn
R:reel
H:Also in Amix, #380.
H:See also "Fairhaired Mary", #419
D:Paddy Canny: Traditional Music from the Legendary East Clare Fiddler
Z:id:hn-reel-703
M:C|
K:Gmix
G2 (3ddG Acdc|AF~F2 (3ddF cF|AGBd .g2dc|1 Bd (3cBA dA{d}cA:|2 Bd (3cBA dGGg||
~g2dg ~g2ag|^fdde Jf3g|~g2ag ~g2ag|^fdcA dGG2|
(3gag dg gbag|^fdde Jf3g|abag ^fgag|^fdcA dA{d}cA||
